X:2
T:Moon River
C:Henry Mancini
L:1/8
M:3/4
I:linebreak $
K:D treble
"D" A6 |"Bm" e2 d4 |"G" c3 BAG |"F#m" A4 D2 |"G" c3 BAG |"F#m" A4 D2 |"C#ø" E6 |
"F#7" z4 z2 Ox/||$"Bm" D6 |"D7" A2 F3 E |"G" D6 |"C7" A2 F3 E |"Bm" D2 F2 A2 |
"Abø" d2"C#7" c3 B |"F#m" c2"B7" B3 A |"Em" B6"A7" "_D.C. al Coda" x4 ||$Ox/"Bm" D6 |"Bm/A" F4 A2 |
"Abø" d6 |"G" e4 d2 |"D" A6 |"G" z2 cBAG |"F#m" A4 z2 |"G" z D cBAG |$"F#m" A6 |"Bm" D6 |
"Em" G2 E4 |"A7" z4 F2 |"D" D4 z2 |"D#" z6 |"D6" z6 | z6 |]

